src/lib/packages/icons/src/assets/filled/bowl-hot.svg

<svg width="24" height="24" viewBox="0 0 24 24" fill="none" xmlns="http://www.w3.org/2000/svg">
<path d="M20.2401 14.2502H3.76008C3.63008 14.2502 3.52009 14.1702 3.47009 14.0502C3.25009 13.4302 3.09009 12.7902 3.00009 12.1102C2.93009 11.5202 3.40009 10.9902 4.00009 10.9902H19.9801C20.5801 10.9902 21.0501 11.5102 20.9801 12.1102C20.9001 12.7802 20.7401 13.4302 20.5101 14.0502C20.4701 14.1702 20.3501 14.2502 20.2201 14.2502H20.2401ZM4.88009 15.7502C4.64009 15.7502 4.49009 16.0302 4.63009 16.2202C5.37009 17.2602 6.32008 18.1302 7.42008 18.7802C7.74008 18.9602 7.94009 19.2902 7.94009 19.6502V20.0002C7.94009 20.5502 8.39009 21.0002 8.94009 21.0002H15.0601C15.6101 21.0002 16.0601 20.5502 16.0601 20.0002V19.6502C16.0601 19.2802 16.2701 18.9602 16.5801 18.7802C17.6801 18.1402 18.6301 17.2602 19.3701 16.2202C19.5101 16.0202 19.3601 15.7502 19.1201 15.7502H4.87008H4.88009ZM12.3901 8.53018L12.5401 8.38019C13.2901 7.62019 13.2901 6.38019 12.5401 5.63019L12.2401 5.33017C12.0601 5.15017 12.0601 4.87019 12.2401 4.69019L12.3901 4.54019C12.6801 4.25019 12.6801 3.7702 12.3901 3.4802C12.1001 3.1902 11.6201 3.1902 11.3301 3.4802L11.1801 3.63019C10.4301 4.39019 10.4301 5.63019 11.1801 6.38019L11.4801 6.68018C11.6601 6.86018 11.6601 7.14019 11.4801 7.32019L11.3301 7.47019C11.0401 7.76019 11.0401 8.24018 11.3301 8.53018C11.4801 8.68018 11.6701 8.75018 11.8601 8.75018C12.0501 8.75018 12.2501 8.68018 12.3901 8.53018ZM17.3901 8.53018L17.5401 8.38019C18.2901 7.62019 18.2901 6.38019 17.5401 5.63019L17.2401 5.33017C17.0601 5.15017 17.0601 4.87019 17.2401 4.69019L17.3901 4.54019C17.6801 4.25019 17.6801 3.7702 17.3901 3.4802C17.1001 3.1902 16.6201 3.1902 16.3301 3.4802L16.1801 3.63019C15.4301 4.39019 15.4301 5.63019 16.1801 6.38019L16.4801 6.68018C16.6601 6.86018 16.6601 7.14019 16.4801 7.32019L16.3301 7.47019C16.0401 7.76019 16.0401 8.24018 16.3301 8.53018C16.4801 8.68018 16.6701 8.75018 16.8601 8.75018C17.0501 8.75018 17.2501 8.68018 17.3901 8.53018ZM7.39008 8.53018L7.54008 8.38019C8.29008 7.62019 8.29008 6.38019 7.54008 5.63019L7.24009 5.33017C7.06009 5.15017 7.06009 4.87019 7.24009 4.69019L7.39008 4.54019C7.68008 4.25019 7.68008 3.7702 7.39008 3.4802C7.10008 3.1902 6.62009 3.1902 6.33009 3.4802L6.18008 3.63019C5.43008 4.39019 5.43008 5.63019 6.18008 6.38019L6.48008 6.68018C6.66008 6.86018 6.66008 7.14019 6.48008 7.32019L6.33009 7.47019C6.04009 7.76019 6.04009 8.24018 6.33009 8.53018C6.48009 8.68018 6.67009 8.75018 6.86009 8.75018C7.05009 8.75018 7.25008 8.68018 7.39008 8.53018Z" fill="currentColor"/>
</svg>

<svg xmlns="http://www.w3.org/2000/svg" width="24" height="24" fill="none"><path fill="currentColor" d="M20.24 14.25H3.76c-.13 0-.24-.08-.29-.2A9.48 9.48 0 0 1 3 12.11c-.07-.59.4-1.12 1-1.12h15.98c.6 0 1.07.52 1 1.12a8.46 8.46 0 0 1-.47 1.94c-.04.12-.16.2-.29.2h.02Zm-15.36 1.5c-.24 0-.39.28-.25.47a9.104 9.104 0 0 0 2.79 2.56c.32.18.52.51.52.87V20c0 .55.45 1 1 1h6.12c.55 0 1-.45 1-1v-.35c0-.37.21-.69.52-.87 1.1-.64 2.05-1.52 2.79-2.56.14-.2-.01-.47-.25-.47H4.87h.01Zm7.51-7.22.15-.15c.75-.76.75-2 0-2.75l-.3-.3a.447.447 0 0 1 0-.64l.15-.15c.29-.29.29-.77 0-1.06a.754.754 0 0 0-1.06 0l-.15.15c-.75.76-.75 2 0 2.75l.3.3c.18.18.18.46 0 .64l-.15.15c-.29.29-.29.77 0 1.06.15.15.34.22.53.22s.39-.07.53-.22Zm5 0 .15-.15c.75-.76.75-2 0-2.75l-.3-.3a.447.447 0 0 1 0-.64l.15-.15c.29-.29.29-.77 0-1.06a.754.754 0 0 0-1.06 0l-.15.15c-.75.76-.75 2 0 2.75l.3.3c.18.18.18.46 0 .64l-.15.15c-.29.29-.29.77 0 1.06.15.15.34.22.53.22s.39-.07.53-.22Zm-10 0 .15-.15c.75-.76.75-2 0-2.75l-.3-.3a.447.447 0 0 1 0-.64l.15-.15c.29-.29.29-.77 0-1.06a.754.754 0 0 0-1.06 0l-.15.15c-.75.76-.75 2 0 2.75l.3.3c.18.18.18.46 0 .64l-.15.15c-.29.29-.29.77 0 1.06.15.15.34.22.53.22s.39-.07.53-.22Z"/></svg>
